X: 30398
T: Old Schoolmaster, The
R: reel
M: 4/4
K: Gmajor
G3A (3Bcd ed|cA A2 cAAG|EG G2 GAce|gede edcA|
G3E (3Bcd ed|cA A2 cAAG|EG G2 GAce|gede eddc||
egg^f gedg|eaag a3g|egg^f gc (3efg|agec decd|
egg^f gedg|eaag a3g|gede cdeg|gede eddc||

